X: 121
T:On the Way to Norway
R:Reel
C:Emile Benoit
M:C|
L:1/8
Z:Gerry Strong
K:G
|:DGGA B2 AG|B2 AG BG ~G2|DGGA B2 AG|DEDC B,D G,2|DGGA B2 AG|B2 AG BG ~G
2|Bdde dBAG|AGBA AG ~G2:|
|:GABc dBGB|dgga bgga|bgeg dgdB|A2 AB AGED|GABc dBGB|dgga bgga|bgeg dgdB
|A2 AB G4:|

